_/img/pin-outlined.svg

<svg width="17" height="17" viewBox="0 0 17 17" fill="none" xmlns="http://www.w3.org/2000/svg">
<path fill-rule="evenodd" clip-rule="evenodd" d="M10.292 3.85834L10.4721 2.71748L14.6399 6.88531L13.4991 7.06545C13.2068 7.11159 12.9367 7.24915 12.7275 7.45836L9.98406 10.2018C9.79423 10.3916 9.66299 10.632 9.60596 10.8943L8.82166 14.5021L2.85533 8.53574L6.46308 7.75145C6.7254 7.69442 6.9658 7.56318 7.15563 7.37335L9.89905 4.62994C10.1083 4.42072 10.2458 4.1506 10.292 3.85834ZM9.43303 0.962941C9.49676 0.559299 9.99151 0.398414 10.2805 0.687368L16.67 7.07695C16.959 7.3659 16.7981 7.86065 16.3945 7.92438L13.7018 8.34954C13.681 8.35283 13.6617 8.36266 13.6467 8.3776L10.9033 11.121C10.8897 11.1346 10.8804 11.1517 10.8763 11.1705L9.78071 16.2101C9.69668 16.5967 9.21829 16.7372 8.93857 16.4575L5.37888 12.8978L1.48979 16.7869C1.23595 17.0407 0.824393 17.0407 0.570552 16.7869C0.316711 16.533 0.316712 16.1215 0.570553 15.8676L4.45964 11.9785L0.899945 8.41884C0.620225 8.13912 0.76073 7.66073 1.14728 7.5767L6.18692 6.48112C6.20566 6.47705 6.22283 6.46767 6.23639 6.45412L8.97981 3.7107C8.99475 3.69575 9.00458 3.67646 9.00787 3.65558L9.43303 0.962941Z" fill="white"/>
</svg>

<svg width="17" height="17" viewBox="0 0 17 17" fill="none" xmlns="http://www.w3.org/2000/svg"><path fill-rule="evenodd" clip-rule="evenodd" d="M10.292 3.858l.18-1.14 4.168 4.167-1.14.18a1.4 1.4 0 00-.773.393l-2.743 2.744a1.4 1.4 0 00-.378.692l-.784 3.608-5.967-5.966 3.608-.785a1.4 1.4 0 00.693-.378L9.899 4.63a1.4 1.4 0 00.393-.772zM9.433.963a.5.5 0 01.848-.276l6.389 6.39a.5.5 0 01-.276.847l-2.692.426a.1.1 0 00-.055.028l-2.744 2.743a.1.1 0 00-.027.05l-1.095 5.04a.5.5 0 01-.842.247l-3.56-3.56-3.89 3.889a.65.65 0 01-.918-.92l3.889-3.889L.9 8.418a.5.5 0 01.247-.841l5.04-1.096a.1.1 0 00.05-.027L8.98 3.711a.1.1 0 00.028-.055L9.433.963z" fill="#fff"/></svg>
